lib/svgs/ordered-list.svg

<?xml version="1.0" encoding="UTF-8" standalone="no"?>
<svg width="20px" height="20px" viewBox="0 0 20 20" version="1.1" xmlns="http://www.w3.org/2000/svg" xmlns:xlink="http://www.w3.org/1999/xlink">
    <defs></defs>
    <g id="Icons" stroke="none" stroke-width="1" fill="none" fill-rule="evenodd">
        <g id="Web" transform="translate(-145.000000, -1418.000000)" fill="#000000">
            <g id="editor/ordered-list" transform="translate(145.000000, 1418.000000)">
                <path d="M4.168,12.8999634 C3.86124024,12.8999634 3.60684164,12.9858642 3.40956362,13.1612224 C3.19993031,13.3358506 3.08268193,13.5836208 3.05634542,13.8996588 L3.156,14.0079634 L3.616,14.0079634 L3.71557012,13.9172257 C3.72936118,13.7689719 3.77495702,13.6647528 3.84985046,13.599221 C3.92255794,13.5328662 4.02608154,13.4999634 4.172,13.4999634 C4.31406274,13.4999634 4.41529642,13.5293538 4.47892086,13.583889 C4.53088,13.6332839 4.56,13.7116839 4.56,13.8239634 C4.56,13.9356018 4.52772138,14.015923 4.46692086,14.0680377 C4.40072833,14.1221614 4.29476565,14.1519634 4.148,14.1519634 L3.948,14.1519634 L3.848,14.2519634 L3.848,14.6039634 L3.948,14.7039634 L4.148,14.7039634 C4.31434823,14.7039634 4.43039218,14.735461 4.50398156,14.7967855 C4.57768235,14.8551721 4.616,14.9471345 4.616,15.0799634 C4.616,15.1876868 4.5797849,15.2747571 4.50528932,15.3492527 C4.42192312,15.4293859 4.30253907,15.4719634 4.148,15.4719634 C4.0095099,15.4719634 3.90129472,15.4334322 3.81970565,15.3583703 C3.73034056,15.2785651 3.68295401,15.1617328 3.67590562,14.9996197 L3.576,14.9039634 L3.1,14.9039634 L3.00028007,15.0114424 C3.02627489,15.35804 3.15038974,15.6306494 3.37168079,15.8165339 C3.57050396,15.9844294 3.83319626,16.0679634 4.152,16.0679634 C4.48611733,16.0679634 4.7625353,15.9725334 4.97472483,15.7824469 C5.18052946,15.5945444 5.284,15.3516136 5.284,15.0599634 C5.284,14.8679717 5.22751344,14.7043961 5.11474093,14.577527 C5.01659615,14.4614917 4.87034376,14.3748653 4.68156837,14.3164348 L4.68326183,14.5069513 C5.03998242,14.3895495 5.228,14.1435894 5.228,13.7879634 C5.228,13.5122025 5.12820584,13.2908201 4.93112714,13.1304072 C4.73661635,12.9756746 4.47985646,12.8999634 4.168,12.8999634 M15.8355,15.3024756 L7.6635,15.3024756 C7.3325,15.3024756 7.0635,15.0334756 7.0635,14.7024756 C7.0635,14.3714756 7.3325,14.1034756 7.6635,14.1034756 L15.8355,14.1034756 C16.1675,14.1034756 16.4355,14.3714756 16.4355,14.7024756 C16.4355,15.0334756 16.1675,15.3024756 15.8355,15.3024756 M4.14,7.89996338 C3.80444526,7.89996338 3.52930297,8.01534563 3.32181263,8.24490941 C3.12154935,8.45820727 3.02031728,8.73795611 3.01600781,9.08271348 L3.116,9.18396338 L3.584,9.18396338 L3.68393629,9.08753253 C3.6912871,8.88170972 3.73410966,8.73004648 3.80663183,8.63774553 C3.87679851,8.542157 3.97842448,8.49596338 4.124,8.49596338 C4.26695245,8.49596338 4.36652492,8.52567452 4.42890867,8.58211696 C4.487068,8.63740912 4.52,8.72836417 4.52,8.85596338 C4.52,8.98957312 4.46619479,9.11853481 4.35714118,9.24165985 C4.27894542,9.32367069 4.15139528,9.42865427 3.98289355,9.54587286 C3.64564562,9.77747466 3.41986438,9.95789346 3.30843109,10.0864703 C3.10220398,10.318464 3,10.5935449 3,10.9119634 L3.1,11.0119634 L5.092,11.0119634 L5.192,10.9119634 L5.192,10.4999634 L5.092,10.3999634 L3.684,10.3999634 L3.77538115,10.5405772 C3.83002921,10.4176191 3.99526519,10.260785 4.27094063,10.0795189 C4.5702557,9.87855582 4.76674889,9.72672017 4.88110553,9.6041952 C5.08444874,9.37877112 5.188,9.13090906 5.188,8.85996338 C5.188,8.57723874 5.08916598,8.34587728 4.89126728,8.16596937 C4.69139923,7.98830053 4.43963835,7.89996338 4.14,7.89996338 M15.8604,10.2980756 L7.6884,10.2980756 C7.3574,10.2980756 7.0884,10.0290756 7.0884,9.69807559 C7.0884,9.36607559 7.3574,9.09807559 7.6884,9.09807559 L15.8604,9.09807559 C16.1924,9.09807559 16.4604,9.36607559 16.4604,9.69807559 C16.4604,10.0290756 16.1924,10.2980756 15.8604,10.2980756 M3.99585822,3.03074682 C3.90814635,3.12211334 3.79600599,3.20902213 3.65585195,3.29467182 C3.52270642,3.36854329 3.39473228,3.42123853 3.27574339,3.45098575 L3.19999695,3.548 L3.19999695,4.012 L3.32766131,4.10809726 C3.60472959,4.02833518 3.83466744,3.9054191 4.01917844,3.7380719 L3.85199695,3.664 L3.85199695,5.956 L3.95199695,6.056 L4.41999695,6.056 L4.51999695,5.956 L4.51999695,3.1 L4.41999695,3 L4.06799695,3 L3.99585822,3.03074682 M15.8604,5.29717559 L7.6884,5.29717559 C7.3574,5.29717559 7.0884,5.02817559 7.0884,4.69717559 C7.0884,4.36517559 7.3574,4.09717559 7.6884,4.09717559 L15.8604,4.09717559 C16.1924,4.09717559 16.4604,4.36517559 16.4604,4.69717559 C16.4604,5.02817559 16.1924,5.29717559 15.8604,5.29717559" id="Shape"></path>
            </g>
        </g>
    </g>
</svg>

<svg xmlns="http://www.w3.org/2000/svg" viewBox="0 0 20 20">
    <path fill="#000" fill-rule="evenodd" d="M4.168 12.9a1.1 1.1 0 0 0-.758.261c-.21.175-.327.423-.354.739l.1.108h.46l.1-.09c.013-.149.059-.253.134-.319.073-.066.176-.099.322-.099.142 0 .243.03.307.084.052.05.081.128.081.24 0 .112-.032.192-.093.244-.066.054-.172.084-.319.084h-.2l-.1.1v.352l.1.1h.2c.166 0 .282.031.356.093.074.058.112.15.112.283a.362.362 0 0 1-.11.27.497.497 0 0 1-.358.122.464.464 0 0 1-.328-.114c-.09-.08-.137-.196-.144-.358l-.1-.096H3.1l-.1.107c.026.347.15.62.372.806.199.167.461.251.78.251.334 0 .61-.095.823-.286a.938.938 0 0 0 .309-.722.704.704 0 0 0-.17-.482.9.9 0 0 0-.432-.262l.001.191c.357-.117.545-.363.545-.719 0-.276-.1-.497-.297-.658a1.193 1.193 0 0 0-.763-.23m11.668 2.402H7.662a.6.6 0 0 1 0-1.199h8.172a.599.599 0 1 1 0 1.2M4.14 7.9c-.336 0-.61.115-.818.345-.2.213-.302.493-.306.838l.1.101h.468l.1-.096c.007-.206.05-.358.123-.45.07-.096.171-.142.317-.142.143 0 .243.03.305.086.058.055.091.146.091.274a.577.577 0 0 1-.163.386 2.568 2.568 0 0 1-.374.304 3.928 3.928 0 0 0-.675.54 1.2 1.2 0 0 0-.308.826l.1.1h1.992l.1-.1V10.5l-.1-.1H3.684l.091.14c.055-.122.22-.28.496-.46.3-.201.496-.353.61-.476a1.09 1.09 0 0 0 .307-.744.895.895 0 0 0-.297-.694A1.091 1.091 0 0 0 4.14 7.9m11.72 2.398H7.688a.6.6 0 0 1 0-1.2h8.172a.6.6 0 1 1 0 1.2M3.996 3.031a1.684 1.684 0 0 1-.72.42l-.076.097v.464l.128.096c.277-.08.507-.203.691-.37l-.167-.074v2.292l.1.1h.468l.1-.1V3.1l-.1-.1h-.352l-.072.03M15.86 5.298H7.688a.6.6 0 0 1 0-1.2h8.172a.6.6 0 1 1 0 1.2"/>
</svg>
